icons/building-4-fill.svg

<svg xmlns="http://www.w3.org/2000/svg" width="24" height="24" fill="none"><g clip-path="url(#a)"><g><path fill="#121212" d="M21 20H23V22H1V20H3V3C3 2.73478 3.10536 2.48043 3.29289 2.29289C3.48043 2.10536 3.73478 2 4 2H20C20.2652 2 20.5196 2.10536 20.7071 2.29289C20.8946 2.48043 21 2.73478 21 3V20ZM8 11V13H11V11H8ZM8 7V9H11V7H8ZM8 15V17H11V15H8ZM13 15V17H16V15H13ZM13 11V13H16V11H13ZM13 7V9H16V7H13Z"/></g></g><defs><clipPath id="a"><rect width="24" height="24" fill="white"/></clipPath></defs></svg>

<svg width="24" height="24" fill="none" xmlns="http://www.w3.org/2000/svg"><g clip-path="url(#a)"><path d="M21 20h2v2H1v-2h2V3a1 1 0 0 1 1-1h16a1 1 0 0 1 1 1v17ZM8 11v2h3v-2H8Zm0-4v2h3V7H8Zm0 8v2h3v-2H8Zm5 0v2h3v-2h-3Zm0-4v2h3v-2h-3Zm0-4v2h3V7h-3Z" /></g><defs><clipPath id="a"><path fill="#fff" d="M0 0h24v24H0z"/></clipPath></defs></svg>
